; generated by PrusaSlicer 2.2.0+win64 on 2020-04-07 at 00:42:56 UTC

; 

; external perimeters extrusion width = 0.52mm
; perimeters extrusion width = 0.52mm
; infill extrusion width = 0.52mm
; solid infill extrusion width = 0.52mm
; top infill extrusion width = 0.52mm
; support material extrusion width = 0.35mm
; first layer extrusion width = 0.52mm

M201 X9000 Y9000 Z500 E10000 ; sets maximum accelerations, mm/sec^2
M203 X500 Y500 Z12 E120 ; sets maximum feedrates, mm/sec
M204 P1500 R1500 T1500 ; sets acceleration (P, T) and retract acceleration (R), mm/sec^2
M205 X10.00 Y10.00 Z0.20 E2.50 ; sets the jerk limits, mm/sec
M205 S0 T0 ; sets the minimum extruding and travel feed rate, mm/sec
M107
M190 S55 ; set bed temperature and wait for it to be reached
M104 S240 ; set temperature
G28;
G1 Z5 F5000;
M109 S240 ; set temperature and wait for it to be reached
G21 ; set units to millimeters
G90 ; use absolute coordinates
M82 ; use absolute distances for extrusion
G92 E0
; Filament gcode
G28 ; home all axes
G1 X3 Y3 Z0.5; Go to x3 y3 and z0.5 to compensate for glass bed
G1 Y60.0 E9.0 F1000.0; Go to Y60 extruding some plastic
G1 Y100.0 E12.5 F1000.0; Go t oY100 extruding some plastic
G92 E0; Reset extruder
G1 Z0.150 F7200.000
G1 E-2.00000 F2400.00000
G92 E0
G1 X99.599 Y105.436 F7200.000
G1 E2.00000 F2400.00000
G1 F1800.000
G1 X100.322 Y105.479 E2.02227
G1 X101.067 Y105.584 E2.04539
G1 X102.563 Y105.980 E2.09291
G1 X103.576 Y106.413 E2.12677
G1 X104.010 Y106.681 E2.14242
G1 X103.878 Y106.924 E2.15092
G1 X102.766 Y106.402 E2.18868
G1 X101.666 Y106.045 E2.22420
G1 X100.531 Y105.829 E2.25970
G1 X99.377 Y105.757 E2.29522
G1 X98.223 Y105.829 E2.33073
G1 X97.088 Y106.045 E2.36624
G1 X96.425 Y106.260 E2.38765
G1 X96.331 Y105.989 E2.39646
G1 X96.970 Y105.753 E2.41737
G1 X98.046 Y105.529 E2.45116
G1 X99.539 Y105.439 E2.49712
G1 E0.49712 F2400.00000
G92 E0
G1 X99.377 Y123.650 F7200.000
G1 E2.00000 F2400.00000
G1 F1800.000
G1 X98.284 Y123.581 E2.03365
G1 X97.209 Y123.377 E2.06726
G1 X96.168 Y123.039 E2.10090
G1 X95.178 Y122.574 E2.13449
G1 X94.253 Y121.988 E2.16814
G1 X93.411 Y121.291 E2.20173
G1 X92.661 Y120.496 E2.23531
G1 X92.017 Y119.611 E2.26894
G1 X91.489 Y118.654 E2.30254
G1 X91.086 Y117.637 E2.33613
G1 X90.814 Y116.578 E2.36972
G1 X90.677 Y115.494 E2.40330
G1 X90.677 Y114.401 E2.43689
G1 X90.814 Y113.317 E2.47047
G1 X91.086 Y112.258 E2.50405
G1 X91.489 Y111.241 E2.53765
G1 X92.017 Y110.284 E2.57124
G1 X92.661 Y109.399 E2.60487
G1 X93.411 Y108.604 E2.63845
G1 X94.253 Y107.907 E2.67205
G1 X95.178 Y107.321 E2.70569
G1 X96.168 Y106.856 E2.73929
G1 X97.209 Y106.518 E2.77293
G1 X98.284 Y106.314 E2.80655
G1 X99.377 Y106.246 E2.84018
G1 X100.470 Y106.314 E2.87382
G1 X101.545 Y106.518 E2.90744
G1 X102.586 Y106.856 E2.94108
G1 X103.576 Y107.321 E2.97467
G1 X104.501 Y107.907 E3.00832
G1 X105.343 Y108.604 E3.04191
G1 X106.093 Y109.399 E3.07549
G1 X106.737 Y110.284 E3.10912
G1 X107.265 Y111.241 E3.14272
G1 X107.668 Y112.258 E3.17631
G1 X107.940 Y113.316 E3.20988
G1 X108.078 Y114.400 E3.24347
G1 X108.078 Y115.495 E3.27709
G1 X107.940 Y116.579 E3.31067
G1 X107.668 Y117.637 E3.34424
G1 X107.265 Y118.654 E3.37784
G1 X106.737 Y119.611 E3.41143
G1 X106.093 Y120.496 E3.44506
G1 X105.343 Y121.291 E3.47864
G1 X104.501 Y121.988 E3.51224
G1 X103.576 Y122.574 E3.54588
G1 X102.586 Y123.039 E3.57948
G1 X101.545 Y123.377 E3.61311
G1 X100.470 Y123.581 E3.64672
G1 X99.437 Y123.646 E3.67853
G1 X99.377 Y123.161 F7200.000
G1 F1800.000
G1 X98.345 Y123.096 E3.71030
G1 X97.331 Y122.903 E3.74203
G1 X96.348 Y122.584 E3.77378
G1 X95.413 Y122.146 E3.80549
G1 X94.540 Y121.593 E3.83725
G1 X93.745 Y120.935 E3.86896
G1 X93.037 Y120.184 E3.90066
G1 X92.429 Y119.349 E3.93240
G1 X91.931 Y118.445 E3.96411
G1 X91.551 Y117.486 E3.99581
G1 X91.294 Y116.487 E4.02750
G1 X91.165 Y115.463 E4.05920
G1 X91.165 Y114.432 E4.09090
G1 X91.294 Y113.408 E4.12259
G1 X91.551 Y112.409 E4.15429
G1 X91.931 Y111.450 E4.18599
G1 X92.429 Y110.546 E4.21770
G1 X93.037 Y109.711 E4.24943
G1 X93.745 Y108.960 E4.28114
G1 X94.540 Y108.302 E4.31285
G1 X95.413 Y107.749 E4.34460
G1 X96.348 Y107.311 E4.37632
G1 X97.331 Y106.992 E4.40807
G1 X98.345 Y106.799 E4.43981
G1 X99.377 Y106.735 E4.47156
G1 X100.409 Y106.799 E4.50332
G1 X101.423 Y106.992 E4.53506
G1 X102.406 Y107.311 E4.56681
G1 X103.341 Y107.749 E4.59852
G1 X104.214 Y108.302 E4.63028
G1 X105.009 Y108.960 E4.66199
G1 X105.717 Y109.711 E4.69369
G1 X106.325 Y110.546 E4.72543
G1 X106.823 Y111.450 E4.75714
G1 X107.203 Y112.409 E4.78884
G1 X107.460 Y113.408 E4.82053
G1 X107.590 Y114.431 E4.85222
G1 X107.590 Y115.464 E4.88394
G1 X107.460 Y116.487 E4.91564
G1 X107.203 Y117.486 E4.94733
G1 X106.823 Y118.445 E4.97903
G1 X106.325 Y119.349 E5.01074
G1 X105.717 Y120.184 E5.04247
G1 X105.009 Y120.935 E5.07418
G1 X104.214 Y121.593 E5.10589
G1 X103.341 Y122.146 E5.13764
G1 X102.406 Y122.584 E5.16936
G1 X101.423 Y122.903 E5.20111
G1 X100.409 Y123.096 E5.23284
G1 X99.437 Y123.158 E5.26276
G1 X99.177 Y123.508 F7200.000
G1 E3.26276 F2400.00000
G92 E0
G1 X91.724 Y109.857 F7200.000
G1 E2.00000 F2400.00000
G1 F1800.000
G1 X91.489 Y109.694 E2.00878
G1 X91.944 Y109.002 E2.03422
G1 X92.700 Y108.154 E2.06912
G1 X93.232 Y107.672 E2.09119
G1 X94.172 Y106.987 E2.12692
G1 X95.133 Y106.432 E2.16102
G1 X95.749 Y106.205 E2.18118
G1 X95.857 Y106.463 E2.18980
G1 X94.943 Y106.892 E2.22082
G1 X93.966 Y107.511 E2.25636
G1 X93.076 Y108.247 E2.29183
G1 X92.285 Y109.087 E2.32729
G1 X91.760 Y109.808 E2.35470
G1 E0.35470 F2400.00000
G92 E0
G1 X90.249 Y113.897 F7200.000
G1 E2.00000 F2400.00000
G1 F1800.000
G1 X89.960 Y113.861 E2.00896
G1 X90.098 Y112.710 E2.04459
G1 X90.430 Y111.655 E2.07856
G1 X90.875 Y110.631 E2.11286
G1 X91.326 Y109.943 E2.13816
G1 X91.568 Y110.088 E2.14681
G1 X91.047 Y111.033 E2.17996
G1 X90.621 Y112.107 E2.21545
G1 X90.334 Y113.225 E2.25093
G1 X90.257 Y113.837 E2.26988
G1 E0.26988 F2400.00000
G92 E0
G1 X105.614 Y108.194 F7200.000
G1 E2.00000 F2400.00000
G1 F1800.000
G1 X104.788 Y107.511 E2.03292
G1 X104.288 Y107.194 E2.05112
G1 X104.442 Y106.948 E2.06006
G1 X105.214 Y107.424 E2.08794
G1 X105.801 Y107.982 E2.11283
G1 X105.653 Y108.149 E2.11967
G1 E0.11967 F2400.00000
G92 E0
G1 X99.514 Y124.556 F7200.000
G1 E2.00000 F2400.00000
G1 F1800.000
G1 X98.793 Y124.561 E2.02217
G1 X98.081 Y124.490 E2.04415
G1 X96.571 Y124.155 E2.09165
G1 X95.158 Y123.594 E2.13838
G1 X93.876 Y122.830 E2.18423
G1 X92.161 Y121.276 E2.25535
G1 X91.059 Y119.709 E2.31419
G1 X90.567 Y118.723 E2.34807
G1 X90.097 Y117.296 E2.39422
G1 X89.823 Y115.003 E2.46516
G1 X89.914 Y114.240 E2.48878
G1 X90.189 Y114.257 E2.49725
G1 X90.189 Y115.525 E2.53622
G1 X90.334 Y116.670 E2.57168
G1 X90.621 Y117.788 E2.60716
G1 X91.047 Y118.862 E2.64265
G1 X91.604 Y119.874 E2.67813
G1 X92.285 Y120.808 E2.71365
G1 X93.076 Y121.648 E2.74911
G1 X93.966 Y122.384 E2.78459
G1 X94.943 Y123.003 E2.82012
G1 X95.988 Y123.493 E2.85560
G1 X97.088 Y123.850 E2.89112
G1 X98.223 Y124.066 E2.92661
G1 X99.377 Y124.139 E2.96215
G1 X100.531 Y124.066 E2.99768
G1 X101.666 Y123.850 E3.03317
G1 X102.766 Y123.493 E3.06869
G1 X103.811 Y123.003 E3.10417
G1 X104.788 Y122.384 E3.13970
G1 X105.678 Y121.648 E3.17518
G1 X106.469 Y120.808 E3.21064
G1 X107.150 Y119.874 E3.24616
G1 X107.707 Y118.862 E3.28164
G1 X108.133 Y117.788 E3.31713
G1 X108.420 Y116.671 E3.35259
G1 X108.566 Y115.526 E3.38806
G1 X108.566 Y114.369 E3.42358
G1 X108.420 Y113.224 E3.45904
G1 X108.133 Y112.107 E3.49450
G1 X107.707 Y111.033 E3.52999
G1 X107.150 Y110.021 E3.56548
G1 X106.469 Y109.087 E3.60099
G1 X105.775 Y108.351 E3.63208
G1 X105.977 Y108.150 E3.64083
G1 X106.590 Y108.732 E3.66680
G1 X107.707 Y110.296 E3.72585
G1 X108.180 Y111.277 E3.75931
G1 X108.759 Y113.130 E3.81897
G1 X108.936 Y114.610 E3.86476
G1 X108.813 Y116.549 E3.92444
G1 X108.587 Y117.604 E3.95759
G1 X107.680 Y119.758 E4.02942
G1 X106.837 Y121.003 E4.07561
G1 X106.073 Y121.836 E4.11034
G1 X105.204 Y122.602 E4.14593
G1 X104.641 Y123.002 E4.16715
G1 X102.565 Y124.023 E4.23824
G1 X99.895 Y124.554 E4.32188
G1 X99.574 Y124.556 E4.33174
G1 X99.405 Y125.045 F7200.000
G1 F1800.000
G1 X98.770 Y125.049 E4.35124
G1 X98.003 Y124.973 E4.37492
G1 X96.428 Y124.623 E4.42451
G1 X94.941 Y124.033 E4.47363
G1 X93.585 Y123.224 E4.52218
G1 X91.793 Y121.601 E4.59646
G1 X90.639 Y119.960 E4.65810
G1 X90.115 Y118.909 E4.69418
G1 X89.619 Y117.402 E4.74292
G1 X89.331 Y115.003 E4.81715
G1 X89.619 Y112.606 E4.89132
G1 X89.972 Y111.484 E4.92747
G1 X90.444 Y110.399 E4.96384
G1 X91.556 Y108.704 E5.02612
G1 X92.353 Y107.810 E5.06292
G1 X92.924 Y107.293 E5.08659
G1 X93.906 Y106.577 E5.12392
G1 X94.925 Y105.989 E5.16008
G1 X96.834 Y105.283 E5.22263
G1 X97.981 Y105.044 E5.25862
G1 X99.599 Y104.947 E5.30841
G1 X100.371 Y104.993 E5.33218
G1 X101.164 Y105.105 E5.35680
G1 X102.722 Y105.517 E5.40629
G1 X103.801 Y105.979 E5.44237
G1 X105.513 Y107.036 E5.50419
G1 X106.960 Y108.411 E5.56551
G1 X108.128 Y110.047 E5.62726
G1 X108.635 Y111.097 E5.66311
G1 X109.238 Y113.028 E5.72525
G1 X109.426 Y114.597 E5.77380
G1 X109.297 Y116.616 E5.83596
G1 X109.054 Y117.751 E5.87162
G1 X108.111 Y119.992 E5.94633
G1 X107.221 Y121.306 E5.99511
G1 X106.415 Y122.185 E6.03175
G1 X105.507 Y122.985 E6.06892
G1 X104.892 Y123.422 E6.09213
G1 X102.723 Y124.489 E6.16639
G1 X99.944 Y125.041 E6.25342
G1 X99.465 Y125.045 E6.26816
G1 X99.405 Y125.533 F7200.000
G1 F1800.000
G1 X98.747 Y125.537 E6.28836
G1 X97.926 Y125.455 E6.31373
G1 X96.284 Y125.091 E6.36540
G1 X94.725 Y124.472 E6.41693
G1 X93.293 Y123.618 E6.46816
G1 X91.425 Y121.926 E6.54561
G1 X90.219 Y120.210 E6.61004
G1 X89.662 Y119.095 E6.64834
G1 X89.140 Y117.508 E6.69966
G1 X88.840 Y115.003 E6.77718
G1 X89.140 Y112.503 E6.85454
G1 X89.515 Y111.313 E6.89288
G1 X90.013 Y110.166 E6.93131
G1 X91.168 Y108.406 E6.99598
G1 X92.006 Y107.466 E7.03469
G1 X92.616 Y106.914 E7.05996
G1 X93.640 Y106.168 E7.09888
G1 X94.717 Y105.546 E7.13712
G1 X96.699 Y104.813 E7.20205
G1 X97.917 Y104.559 E7.24025
G1 X99.599 Y104.458 E7.29202
G1 X100.420 Y104.507 E7.31731
G1 X101.261 Y104.627 E7.34341
G1 X102.881 Y105.055 E7.39489
G1 X104.027 Y105.545 E7.43317
G1 X105.813 Y106.647 E7.49767
G1 X107.330 Y108.090 E7.56198
G1 X108.549 Y109.797 E7.62644
G1 X109.090 Y110.917 E7.66467
G1 X109.717 Y112.925 E7.72930
G1 X109.916 Y114.583 E7.78060
G1 X109.782 Y116.683 E7.84525
G1 X109.521 Y117.897 E7.88342
G1 X108.542 Y120.225 E7.96102
G1 X107.605 Y121.610 E8.01239
G1 X106.757 Y122.534 E8.05092
G1 X105.811 Y123.368 E8.08967
G1 X105.142 Y123.843 E8.11487
G1 X102.881 Y124.955 E8.19230
G1 X99.994 Y125.529 E8.28272
G1 X99.465 Y125.532 E8.29899
G1 X99.184 Y125.199 F7200.000
G1 E6.29899 F2400.00000
G92 E0
G1 X95.953 Y105.869 F7200.000
G1 E2.00000 F2400.00000
G1 F1800.000
G1 X96.225 Y106.581 E2.00690
G1 E0.00690 F2400.00000
G92 E0
G1 X100.000 Y98.075 F7200.000
G1 E2.00000 F2400.00000
G1 F1800.000
G1 X98.608 Y97.987 E2.04284
G1 X97.239 Y97.727 E2.08567
G1 X95.913 Y97.297 E2.12850
G1 X94.652 Y96.705 E2.17130
G1 X93.476 Y95.960 E2.21409
G1 X92.402 Y95.072 E2.25688
G1 X91.448 Y94.058 E2.29967
G1 X90.628 Y92.933 E2.34244
G1 X89.957 Y91.716 E2.38515
G1 X89.445 Y90.423 E2.42788
G1 X89.098 Y89.077 E2.47060
G1 X88.923 Y87.697 E2.51331
G1 X88.923 Y86.308 E2.55601
G1 X89.098 Y84.928 E2.59873
G1 X89.445 Y83.582 E2.64144
G1 X89.957 Y82.289 E2.68418
G1 X90.628 Y81.071 E2.72691
G1 X91.447 Y79.947 E2.76964
G1 X92.402 Y78.933 E2.81244
G1 X93.476 Y78.045 E2.85523
G1 X94.652 Y77.300 E2.89803
G1 X95.913 Y76.708 E2.94082
G1 X97.239 Y76.278 E2.98366
G1 X98.608 Y76.018 E3.02648
G1 X100.000 Y75.930 E3.06932
G1 X101.391 Y76.018 E3.11214
G1 X102.761 Y76.278 E3.15500
G1 X104.087 Y76.708 E3.19783
G1 X105.348 Y77.300 E3.24062
G1 X106.524 Y78.045 E3.28341
G1 X107.598 Y78.933 E3.32621
G1 X108.553 Y79.947 E3.36901
G1 X109.372 Y81.071 E3.41174
G1 X110.043 Y82.289 E3.45447
G1 X110.555 Y83.582 E3.49721
G1 X110.902 Y84.928 E3.53992
G1 X111.077 Y86.308 E3.58264
G1 X111.077 Y87.697 E3.62534
G1 X110.902 Y89.077 E3.66805
G1 X110.555 Y90.423 E3.71077
G1 X110.043 Y91.716 E3.75349
G1 X109.372 Y92.933 E3.79621
G1 X108.552 Y94.058 E3.83898
G1 X107.598 Y95.072 E3.88177
G1 X106.524 Y95.960 E3.92456
G1 X105.348 Y96.705 E3.96735
G1 X104.087 Y97.297 E4.01015
G1 X102.761 Y97.727 E4.05298
G1 X101.391 Y97.987 E4.09584
G1 X100.060 Y98.071 E4.13681
G1 X100.000 Y98.564 F7200.000
G1 F1800.000
G1 X98.547 Y98.472 E4.18153
G1 X97.118 Y98.200 E4.22624
G1 X95.733 Y97.752 E4.27095
G1 X94.417 Y97.133 E4.31564
G1 X93.189 Y96.355 E4.36032
G1 X92.068 Y95.429 E4.40499
G1 X91.071 Y94.370 E4.44966
G1 X90.216 Y93.195 E4.49432
G1 X89.515 Y91.924 E4.53892
G1 X88.980 Y90.574 E4.58354
G1 X88.618 Y89.168 E4.62814
G1 X88.436 Y87.728 E4.67275
G1 X88.436 Y86.277 E4.71733
G1 X88.618 Y84.837 E4.76194
G1 X88.980 Y83.431 E4.80654
G1 X89.515 Y82.081 E4.85117
G1 X90.216 Y80.809 E4.89579
G1 X91.071 Y79.635 E4.94042
G1 X92.068 Y78.576 E4.98509
G1 X93.189 Y77.650 E5.02977
G1 X94.417 Y76.872 E5.07445
G1 X95.733 Y76.253 E5.11913
G1 X97.118 Y75.805 E5.16385
G1 X98.547 Y75.533 E5.20855
G1 X100.000 Y75.441 E5.25328
G1 X101.452 Y75.533 E5.29798
G1 X102.882 Y75.805 E5.34271
G1 X104.267 Y76.253 E5.38743
G1 X105.583 Y76.872 E5.43211
G1 X106.811 Y77.650 E5.47679
G1 X107.932 Y78.576 E5.52147
G1 X108.929 Y79.635 E5.56614
G1 X109.784 Y80.809 E5.61077
G1 X110.485 Y82.081 E5.65539
G1 X111.020 Y83.431 E5.70002
G1 X111.382 Y84.837 E5.74462
G1 X111.564 Y86.277 E5.78923
G1 X111.564 Y87.728 E5.83381
G1 X111.382 Y89.168 E5.87842
G1 X111.020 Y90.574 E5.92302
G1 X110.485 Y91.924 E5.96764
G1 X109.784 Y93.195 E6.01224
G1 X108.929 Y94.370 E6.05690
G1 X107.932 Y95.429 E6.10157
G1 X106.811 Y96.355 E6.14624
G1 X105.583 Y97.133 E6.19092
G1 X104.267 Y97.752 E6.23561
G1 X102.882 Y98.200 E6.28032
G1 X101.452 Y98.472 E6.32506
G1 X100.060 Y98.560 E6.36791
G1 X100.000 Y99.053 F7200.000
G1 F1800.000
G1 X98.486 Y98.957 E6.41452
G1 X96.997 Y98.674 E6.46110
G1 X95.554 Y98.206 E6.50770
G1 X94.182 Y97.562 E6.55427
G1 X92.902 Y96.751 E6.60084
G1 X91.733 Y95.786 E6.64740
G1 X90.695 Y94.682 E6.69395
G1 X89.803 Y93.458 E6.74049
G1 X89.073 Y92.132 E6.78699
G1 X88.515 Y90.725 E6.83349
G1 X88.138 Y89.260 E6.87999
G1 X87.948 Y87.759 E6.92648
G1 X87.948 Y86.246 E6.97296
G1 X88.138 Y84.745 E7.01946
G1 X88.515 Y83.280 E7.06595
G1 X89.073 Y81.872 E7.11246
G1 X89.803 Y80.546 E7.15897
G1 X90.695 Y79.323 E7.20549
G1 X91.733 Y78.219 E7.25204
G1 X92.902 Y77.254 E7.29860
G1 X94.182 Y76.443 E7.34517
G1 X95.554 Y75.799 E7.39174
G1 X96.997 Y75.331 E7.43834
G1 X98.486 Y75.048 E7.48492
G1 X100.000 Y74.952 E7.53153
G1 X101.513 Y75.048 E7.57811
G1 X103.003 Y75.331 E7.62473
G1 X104.446 Y75.799 E7.67133
G1 X105.818 Y76.443 E7.71790
G1 X107.098 Y77.254 E7.76446
G1 X108.267 Y78.219 E7.81102
G1 X109.305 Y79.323 E7.85758
G1 X110.197 Y80.546 E7.90409
G1 X110.927 Y81.872 E7.95061
G1 X111.485 Y83.280 E7.99712
G1 X111.862 Y84.745 E8.04361
G1 X112.052 Y86.246 E8.09011
G1 X112.052 Y87.759 E8.13658
G1 X111.862 Y89.260 E8.18308
G1 X111.485 Y90.725 E8.22957
G1 X110.927 Y92.132 E8.27608
G1 X110.197 Y93.458 E8.32257
G1 X109.305 Y94.682 E8.36911
G1 X108.267 Y95.786 E8.41567
G1 X107.098 Y96.751 E8.46223
G1 X105.818 Y97.562 E8.50879
G1 X104.446 Y98.206 E8.55536
G1 X103.003 Y98.674 E8.60196
G1 X101.513 Y98.957 E8.64857
G1 X100.060 Y99.049 E8.69331
G1 X100.000 Y99.542 F7200.000
G1 F1800.000
G1 X98.425 Y99.442 E8.74181
G1 X96.875 Y99.147 E8.79027
G1 X95.374 Y98.661 E8.83875
G1 X93.947 Y97.990 E8.88721
G1 X92.615 Y97.146 E8.93566
G1 X91.399 Y96.142 E8.98410
G1 X90.319 Y94.994 E9.03254
G1 X89.391 Y93.720 E9.08097
G1 X88.631 Y92.341 E9.12935
G1 X88.050 Y90.877 E9.17775
G1 X87.658 Y89.352 E9.22613
G1 X87.460 Y87.790 E9.27451
G1 X87.460 Y86.215 E9.32288
G1 X87.658 Y84.653 E9.37127
G1 X88.050 Y83.128 E9.41965
G1 X88.631 Y81.664 E9.46804
G1 X89.391 Y80.284 E9.51645
G1 X90.319 Y79.011 E9.56485
G1 X91.399 Y77.863 E9.61329
G1 X92.615 Y76.859 E9.66173
G1 X93.947 Y76.015 E9.71019
G1 X95.374 Y75.344 E9.75865
G1 X96.875 Y74.858 E9.80712
G1 X98.425 Y74.563 E9.85559
G1 X100.000 Y74.463 E9.90408
G1 X101.574 Y74.563 E9.95255
G1 X103.125 Y74.858 E10.00104
G1 X104.626 Y75.344 E10.04952
G1 X106.053 Y76.015 E10.09798
G1 X107.385 Y76.859 E10.14643
